X: 2863
T: Barking Owl, The
R: reel
M: 4/4
K: Eminor
EF|:GEED ~E3F|G~E3 BEGB|A~D3 ADFA|d^cdB ADFD|
GEED ~E3F|G~E3 BEGB|ADFA d^cdB|ADFD E2EF:|
|:G~E3 BEGB|ADFA dDAD|~B3A BAGE|F~A3 FABA|
G~E3 BEGB|ADFA dDAD|BdAB BAEF|GBFB E3F:|

